X:1
T:Title
%%score { ( 1 3 5 ) | ( 2 4 ) }
L:1/8
M:4/4
K:Ab
V:1 treble nm="Grand Piano"
V:3 treble 
V:5 treble 
V:2 bass 
V:4 bass 
V:1
 z4 z2[Q:1/4=110] E2 | c2 c2 [Ee]2 [EA]2 | [FA]2 F2 E2 z B, | E2 E2 [EF]2 [DA]2 | %4
[M:3/4] A2- [CA-][B,A-] [CA]2 |[M:1/4] c2 |[M:4/4] B2 F2 G2 d2 | c2 G2 A2 e2 | =d2 e2 F2 GA | %9
[M:3/4] G6 |[M:1/4] E2 |[M:4/4] z4 z2 G2 | c4 z2 A2 | d2 cB [Ee]2 [=DA]2 |[M:3/4] [EB]6 | %15
[M:1/4] [EGB]2 |[M:4/4] [E_Gc]3 B A2 A2 | f4 z4 | A2 GF E2 B2 |[M:3/4] [CA]6 |] %20
V:2
 z4 z2 [A,C]2 | [A,CE]2 [A,E]2 [C,A,]2 [C,A,]2 | z4 z2 D2 | [A,C]2 [C,A,]2 [D,A,]2 [D,F,]2 | %4
[M:3/4] F,2 z2 z2 |[M:1/4][K:treble] [A,E]2 |[M:4/4] [A,B,D]2 [A,B,D]2 [G,B,E]2 [G,B,E]2 | %7
 [B,C=E]2 [B,CE]2 [A,CE]2 [A,CF]2 | [A,B,F]2[K:bass] [G,B,E]2 [A,CE]2 [B,=D]2 |[M:3/4] [E,B,E]6 | %10
[M:1/4] [E,G,]2 |[M:4/4] [E,D]3 [E,D] [E,DE]2 [CE]B, | [E,A,C]2 [E,B,]2 [E,CE]2 [DF]C | %13
 [E,B,D]2 [D,G,E]2 [C,A,]2 [F,A,]2 |[M:3/4] [E,G,]6 |[M:1/4] E,2 | %16
[M:4/4] A,2 z[K:treble] [D_G] [A,CG]2 [A,CG]2 | [D,D]2 [D,=A,]2 [D,B,]2 [D,D]2 | %18
 [E,CE]2 B,A, [E,G,D]2 [E,G,D]2 |[M:3/4] [A,,A,]6 |] %20
V:3
 x8 | x8 | z4 z2 E2 | x8 |[M:3/4] D2 z2 z2 |[M:1/4] x2 |[M:4/4] x8 | x8 | x8 |[M:3/4] x6 | %10
[M:1/4] x2 |[M:4/4] [GB]3 [FA] G2 z D | z2 z B A2 z E | x8 |[M:3/4] x6 |[M:1/4] x2 |[M:4/4] x8 | %17
 F2 z c [Fd]2 cB | x8 |[M:3/4] x6 |] %20
V:4
 x8 | x8 | [D,A,]2 [F,A,D]2 [G,B,D]2 [F,A,]G, | x8 |[M:3/4] A,,2- [A,,-E,][A,,-D,] [A,,E,]2 | %5
[M:1/4][K:treble] x2 |[M:4/4] x8 | x8 | x2[K:bass] x6 |[M:3/4] x6 |[M:1/4] x2 |[M:4/4] z4 z2 E,2 | %12
 z4 z2 E,2 | x8 |[M:3/4] x6 |[M:1/4] x2 |[M:4/4] z2 A,2[K:treble] z4 | x8 | z2 [E,D]2 z4 | %19
[M:3/4] x6 |] %20
V:5
 x8 | x8 | x8 | x8 |[M:3/4] x6 |[M:1/4] x2 |[M:4/4] x8 | x8 | x8 |[M:3/4] x6 |[M:1/4] x2 | %11
[M:4/4] x8 | z2 D2 z4 | x8 |[M:3/4] x6 |[M:1/4] x2 |[M:4/4] x8 | z2 F2 z2 =E2 | x8 |[M:3/4] x6 |] %20

